X: 131
%
T: Daldownys
C:Pipe tune
O:Scotland
B:Keith Norman MacDonald : "The Skye collection of the best reels & strathspeys extant" : 1887
Z:Ralph Palmer
R:Reel
M:C
L:1/8
K:A
d | ceae cefe | cAAc e2 ed | [1 ceae ce=gd | B=GGB d2 dB :|
[2 cdef =gefd | B=GGB d2 dB || cAAe fAeA | cAAc e2 ed |
[1dAA[ce] fded | B=GGB d2 dB :| [2 cdef =gefd | B=GGB d2dB |]
W:From Ross's Collection


